X:1
T:Title
%%score { ( 1 3 5 ) | ( 2 4 ) }
L:1/8
Q:1/4=100
M:4/4
K:D
V:1 treble nm="Grand Piano"
V:3 treble 
V:5 treble 
V:2 bass 
V:4 bass 
V:1
 F2 F>=F ^F2 [EG]2 | [FA]3 [=F^G] [^FA]2 [FB]c | d3 c B2 ^A2 |[M:3/4] [DB]6 |[M:1/4] AG | %5
w: J.~B.~Herbert * * * *|||||
[M:4/4] F2 F>=F [A,D^F]2 [A,EG]2 | [DFA]3 [D=F^G] [D^FA]2 [DFB][Bd] | %7
w: ||
 [EAc]3 [DEB] [CEA]2 [B,E^G]2 | [CEA]6 z2 | [CE]6 z2 | [DF]6 z2 | [GB]2- [DG-B-]2 [GB]d[Ac]B | %12
w: |||||
 [Ec]6 [CGA]2 | [DFd][Fd][Fd][Fd] [Af][Ae][DAd][DAc] | %14
w: ||
[M:9/8] [GB]2- [DGB]- [DG-B] [Gd]2- [Gd-]/d/ B2 |[M:4/4] A3 F [FA][EG][DF][CE] | D6 z2 |] %17
w: |||
V:2
 [D,A,D]2 [D,A,D]>[D,^G,D] [D,A,D]2 [D,A,]2 | [D,D]3 [D,D] [D,D]2 [D,D][E,CE] | %2
 [F,B,D]3 [F,^A,E] [F,B,D]2 [F,C]2 |[M:3/4] [B,,F,]6 |[M:1/4] [C,A,]2 |[M:4/4] z2 A,2 z4 | %6
 D,3 D, D,2 z G | E,3 E, E,2 E,2 | A,,6 z2 | A,,2 A,,2 z E [A,,A,]2 | %10
 [D,A,]2 D,2 D,2[K:treble] F2 | G,2 G,2 z B z G | A,2 A,2 A,2 A,2 | %13
 D,[D,A,][D,A,][D,A,] [D,D][E,C]F,F, |[M:9/8] G,2 G,- G, [G,B,]2- [G,B,][K:treble] [G,DG]2 | %15
[M:4/4] [A,DF]3[K:bass] [A,D] [A,,A,][A,,A,][A,,A,][A,,G,] | [D,F,]6 z2 |] %17
V:3
 x8 | x8 | x8 |[M:3/4] x6 |[M:1/4] E2 |[M:4/4] x8 | x8 | x8 | x8 | A,2 A,2 z G[DF][CE] | %10
 z2 A,2 A,2 A2 | D2 z2 D2 z2 | x8 | x8 |[M:9/8] .D3 z3 z3 |[M:4/4] x8 | x8 |] %17
V:4
 x8 | x8 | x8 |[M:3/4] x6 |[M:1/4] x2 |[M:4/4] [D,A,D]2 [D,D]->[D,^G,D] D,2 D,2 | z4 z2 B,,2 | x8 | %8
 x8 | z4 A,,2 z2 | x6[K:treble] x2 | z4 G,2 [G,D]2 | x8 | x8 |[M:9/8] x7[K:treble] x2 | %15
[M:4/4] x3[K:bass] x5 | x8 |] %17
V:5
 x8 | x8 | x8 |[M:3/4] x6 |[M:1/4] x2 |[M:4/4] x8 | x8 | x8 | x8 | z4 A,2 z2 | x8 | x8 | x8 | x8 | %14
[M:9/8] x9 |[M:4/4] x8 | x8 |] %17

